!!!OTL: Yijiuerjiunian
!!!ARE: Asia, China,ÿHenan Xinxian
!! IV, 125
!!!SCT: C1944
!!!YEM: Copyright 1995, estate of Helmut Schaffrath.
**kern
*ICvox
*Ivox
*M2/4
*k[f#]
*G:
{8B
8B
8B
8g
=1
8e
4.d}
=2
{8e
8dd
8dd
8b
=3
8b
4.a}
=4
{8b
16b
16dd
8b
16b
16a
=5
8a
8a
4g
=6
8g
16g
16a
4e
=7
2d}
=8
{8a
8g
8e
8e
=9
2d}
=10
{8e
8a
8a
16a
16a
=11
8g
16a
16g
4e
=12
8g
16a
16g
8e
8e
=13
2d}
==
!!!AGN: Xiaodiao, Shihen
!!!AMT: simple duple
!!!AIN: vox
!!!EED: Helmut Schaffrath
!!!EEV: 1.0
*-
